X:1
T:The Marquis of Huntly's Snuff Mill
T:The Marquis of Huntly's Snuff Mill
T:The Royal Gift
T:Niel Gow
C:Niel Gow
L:1/8
M:4/4
K:F
V:1 treble 
V:1
 C<FFA G>F [B,D]2 | C<FFA cd/e/ f>c | d>cf>A B/A/G/F/ [B,D]2 | C>FA>F [B,G]2 [A,F]2 | %4
 C<FFA G>F [B,D]2 | C<FFA cd/e/ fA/c/ | d>cf>A B/A/G/F/ [B,D]A, | %7
 C<[A,F] [CA]>[FA] [B,G]2 [A,F]2 || cffa g>f d2 | c>ffa gafa | d>fc>A B/A/G/F/ [B,D]2 | %11
 C>FA>F G2 F2 | cffa g>f d2 | [Ac]>ffa gafa | d>fA>c B/A/G/F/ [B,D] f/g/ | aFcA [B,G]2 [A,F]2 |] %16

